X: 4033
T: DOON THE WATER
R: Reel.
%R: reel
B: James Kerr "Merry Melodies" v.4 p.06 #33
Z: 2016 John Chambers <jc:trillian.mit.edu>
M: C|
L: 1/8
K: A
|:\
c/c/c c2 cBce | c/c/c c2 cBce |\
fgag fedc | dcBA GBBd ::\
c/c/c c2 ceea |
c/c/c c2 ceea |\
[1 f/f/f f2 fedc | dcBA GBBd :|\
[2 fgag fedc | dcBA GBBd |]

%%sep 1 1 500
%%sep 1 1 500

